resources/svg/minor-archive.svg

<svg xmlns="http://www.w3.org/2000/svg" viewBox="0 0 20 20" fill="currentColor"><path d="M4.5 3a1.5 1.5 0 0 0-1.5 1.5v1.5h14v-1.5a1.5 1.5 0 0 0-1.5-1.5h-11zm-.5 12.5a1.5 1.5 0 0 0 1.5 1.5h9a1.5 1.5 0 0 0 1.5-1.5v-7.5h-12v7.5zm3-4.5h6v2h-6v-2z"/></svg>

<svg xmlns="http://www.w3.org/2000/svg" viewBox="0 0 20 20" fill="currentColor"><path d="M4.5 3A1.5 1.5 0 003 4.5V6h14V4.5A1.5 1.5 0 0015.5 3h-11zM4 15.5A1.5 1.5 0 005.5 17h9a1.5 1.5 0 001.5-1.5V8H4v7.5zM7 11h6v2H7v-2z" fill="#5C5F62"/></svg>
